svg/azure-aci.svg

<?xml version="1.0" encoding="UTF-8"?>
<svg xmlns="http://www.w3.org/2000/svg" xmlns:xlink="http://www.w3.org/1999/xlink" width="32" height="32" viewBox="0 0 32 32">
<defs>
<filter id="filter-remove-color" x="0%" y="0%" width="100%" height="100%">
<feColorMatrix color-interpolation-filters="sRGB" values="0 0 0 0 1 0 0 0 0 1 0 0 0 0 1 0 0 0 1 0" />
</filter>
<image id="source-20" x="0" y="0" width="32" height="32" xlink:href="data:image/png;base64,iVBORw0KGgoAAAANSUhEUgAAACAAAAAgCAYAAABzenr0AAAABmJLR0QA/wD/AP+gvaeTAAAAeElEQVRYhe3UMQpCMRRE0fPV1sIduE47l+oCFK1+pbGJ4LcKREzhXHjNY8hcUjxCCCGEEP6dqSGzwwHbt3zBFUfMPQKbxsy+irwoOGPdU94qMNWileUPdJerjw4lAhGIwHCBlkNU8KjzufuJwB0nXCwv4e1bEkN5ArcSEgIPEHTcAAAAAElFTkSuQmCC"/>
<mask id="mask-0">
<g filter="url(#filter-remove-color)">
<use xlink:href="#source-20"/>
</g>
</mask>
<clipPath id="clip-0">
<rect x="0" y="0" width="32" height="32"/>
</clipPath>
<g id="source-19" clip-path="url(#clip-0)">
<path fill-rule="nonzero" fill="rgb(71.764706%, 47.843137%, 95.686275%)" fill-opacity="1" d="M 12.300781 19.414062 L 12.300781 29.742188 L 15.09375 30.1875 L 15.09375 18.933594 Z M 8.851562 19.980469 L 8.851562 29.011719 L 11.289062 29.511719 L 11.289062 19.574219 Z M 8.851562 19.980469 "/>
</g>
<clipPath id="clip-1">
<rect x="0" y="0" width="32" height="32"/>
</clipPath>
<g id="source-22" clip-path="url(#clip-1)">
<g mask="url(#mask-0)">
<use xlink:href="#source-19"/>
</g>
</g>
</defs>
<path fill-rule="nonzero" fill="rgb(94.901961%, 94.901961%, 94.901961%)" fill-opacity="1" d="M 11.308594 11.484375 L 16 6.878906 C 16.210938 6.667969 16.554688 6.667969 16.765625 6.878906 L 21.332031 11.484375 C 21.414062 11.550781 21.441406 11.660156 21.402344 11.757812 C 21.359375 11.855469 21.257812 11.910156 21.15625 11.894531 L 18.277344 11.894531 C 18.144531 11.902344 18.035156 12.007812 18.027344 12.140625 L 18.027344 17.902344 C 18.027344 18.011719 17.9375 18.097656 17.832031 18.097656 L 14.738281 18.097656 C 14.6875 18.097656 14.636719 18.078125 14.597656 18.042969 C 14.5625 18.007812 14.542969 17.957031 14.542969 17.902344 L 14.542969 12.140625 C 14.542969 12.011719 14.441406 11.90625 14.3125 11.894531 L 11.464844 11.894531 C 11.363281 11.902344 11.269531 11.839844 11.238281 11.746094 C 11.203125 11.652344 11.230469 11.546875 11.308594 11.484375 "/>
<path fill-rule="nonzero" fill="rgb(65.098039%, 47.843137%, 95.686275%)" fill-opacity="1" d="M 24.890625 20.214844 C 24.894531 20.109375 24.828125 20.015625 24.730469 19.980469 L 16.285156 17.15625 L 16 17.15625 L 16 32 L 16.230469 32 L 24.605469 28.65625 C 24.671875 28.671875 24.742188 28.65625 24.796875 28.617188 C 24.851562 28.578125 24.886719 28.515625 24.890625 28.445312 Z M 24.890625 20.214844 "/>
<path fill-rule="nonzero" fill="rgb(33.333333%, 18.431373%, 60%)" fill-opacity="1" d="M 16 17.207031 L 7.980469 18.683594 C 7.863281 18.703125 7.777344 18.796875 7.769531 18.914062 L 7.769531 29.992188 C 7.773438 30.109375 7.851562 30.207031 7.964844 30.238281 L 16 32 C 16.070312 32.011719 16.140625 31.996094 16.195312 31.949219 C 16.25 31.90625 16.285156 31.839844 16.285156 31.769531 L 16.285156 17.546875 C 16.320312 17.460938 16.304688 17.363281 16.246094 17.289062 C 16.183594 17.21875 16.089844 17.1875 16 17.207031 "/>
<use xlink:href="#source-22"/>
</svg>

<svg role="img" viewBox="0 0 32 32" height="32" width="32" xmlns="http://www.w3.org/2000/svg"><defs><clipPath id="1234__1226__clip-0"><path d="M0 0h32v32H0z"/></clipPath><clipPath id="1235__1227__clip-1"><path d="M0 0h32v32H0z"/></clipPath><g clip-path="url(#1234__1226__clip-0)" id="1236__1228__source-19"><path d="M12.3 19.414v10.328l2.794.445V18.935Zm-3.448.566v9.032l2.437.5v-9.938Zm0 0" fill="rgb(71.764706%, 47.843137%, 95.686275%)"/></g><g clip-path="url(#1235__1227__clip-1)" id="1237__1229__source-22" mask="url(#1238__1230__mask-0)"><use href="#1236__1228__source-19"/></g><linearGradient gradientTransform="rotate(.086)scale(1.77778)" gradientUnits="userSpaceOnUse" id="1239__1231__azure-aci-lp-0" x1="9" x2="9" y1="11.95" y2="0"><stop offset="0" stop-color="rgb(0%, 47.058824%, 83.137255%)"/><stop offset=".16" stop-color="rgb(7.45098%, 50.196078%, 85.490196%)"/><stop offset=".53" stop-color="rgb(23.529412%, 56.862745%, 89.803922%)"/><stop offset=".82" stop-color="rgb(33.333333%, 61.176471%, 92.54902%)"/><stop offset="1" stop-color="rgb(36.862745%, 62.745098%, 93.72549%)"/></linearGradient><filter height="100%" id="1240__1232__filter-remove-color" width="100%" x="0%" y="0%"><feColorMatrix color-interpolation-filters="sRGB" values="0 0 0 0 1 0 0 0 0 1 0 0 0 0 1 0 0 0 1 0"/></filter><image height="32" href="data:image/png;base64,iVBORw0KGgoAAAANSUhEUgAAACAAAAAgCAYAAABzenr0AAAABmJLR0QA/wD/AP+gvaeTAAAAfElEQVRYhe3UIQ7CQBCF4a8UJAKD5pIcgYNyAEgJFlhMRYvaZAkVvD9ZM3k782fEEEIIIYTw73QVmT2O2E7yBQNOuLcIrCsyGxywm9QKLpX/mwU69FiZb6BvHW5suigRiEAEFheoOUQFr/F91n4i8MAZV/NLeMPzGxKL8gbCTBICBE0j2AAAAABJRU5ErkJggg==" id="1241__1233__source-20" width="32" x="0" y="0"/><mask id="1238__1230__mask-0"><g filter="url(#1240__1232__filter-remove-color)"><use href="#1241__1233__source-20"/></g></mask></defs><path d="M30.988 14.594a6.724 6.724 0 0 0-5.851-6.469C24.945 3.477 21.039-.148 16.39 0a8.725 8.725 0 0 0-8.32 5.672 8.033 8.033 0 0 0-7.11 7.734 8.175 8.175 0 0 0 8.496 7.926H24.23a6.827 6.827 0 0 0 6.758-6.738" fill="url(#1239__1231__linear-pattern-0)"/><path d="M11.309 11.484 16 6.88a.543.543 0 0 1 .766 0l4.566 4.605c.082.067.11.176.07.274a.231.231 0 0 1-.246.137h-2.879a.265.265 0 0 0-.25.246v5.761c0 .11-.09.196-.195.196h-3.094a.212.212 0 0 1-.14-.055.198.198 0 0 1-.055-.14V12.14a.25.25 0 0 0-.23-.246h-2.848a.221.221 0 0 1-.227-.149.23.23 0 0 1 .07-.262" fill="rgb(94.901961%, 94.901961%, 94.901961%)"/><path d="M24.89 20.215a.24.24 0 0 0-.16-.235l-8.445-2.824H16V32h.23l8.375-3.344a.232.232 0 0 0 .285-.21Zm0 0" fill="rgb(65.098039%, 47.843137%, 95.686275%)"/><path d="m16 17.207-8.02 1.477a.25.25 0 0 0-.21.23v11.078a.263.263 0 0 0 .195.246L16 32c.07.012.14-.004.195-.05a.231.231 0 0 0 .09-.18V17.547a.258.258 0 0 0-.039-.258.254.254 0 0 0-.246-.082" fill="rgb(33.333333%, 18.431373%, 60%)"/><use href="#1237__1229__source-22"/></svg>
